icons/1_Primary/Upwork.svg

<svg xmlns="http://www.w3.org/2000/svg" width="1024" height="1024" fill="none">
   <g clip-path="url(#a)">
      <path fill="#98DC9A" d="M512 1024c282.77 0 512-229.23 512-512S794.77 0 512 0 0 229.23 0 512s229.23 512 512 512Z"/>
      <path fill="#fff" d="M362.26 544.5c-18.49 0-30.73-14-34.15-19.43 4.38-34.33 17.2-45.18 34.15-45.18C379 479.88 392 493 392 512.19c0 19.19-13 32.31-29.74 32.31Zm0-85.69c-30.15 0-47 19.25-51.87 39.06-5.48-10.1-9.54-23.6-12.69-36.16H256v50.79c0 18.42-8.57 32.05-25.32 32.05s-26.35-13.63-26.35-32.05l.19-50.79h-24v50.79c0 14.83 4.9 28.27 13.85 37.86 9.21 9.91 21.78 15.08 36.34 15.08 29 0 49.23-21.77 49.23-52.94v-34.13c3 11.23 10.24 32.81 24 51.74L291.06 602h24.42l8.5-50.92a66.798 66.798 0 0 0 8.89 6.12 55.151 55.151 0 0 0 27.19 8.2s1.48.06 2.26.06c29.9 0 53.67-22.65 53.67-53.26s-23.83-53.39-53.73-53.39Zm345.29 13.75v-10.85H684v100.52h23.9v-39.38c0-24.23 2.26-41.64 35.44-39.37v-23c-15.49-1.1-27.54 2.05-35.79 12.08Zm-166-10.85L524.26 532l-18.49-70.29h-30.42L456.8 532l-17.27-70.29H415.3l26.55 100.58h28.74l20-71.43 19.78 71.43h28.74l28.09-100.58h-25.65Zm78.22 82.85c-17 0-29.77-13.12-29.77-32.37s12.82-32.31 29.77-32.31c16.75 0 29.77 13.12 29.77 32.31 0 19.19-12.98 32.37-29.73 32.37h-.04Zm0-85.75c-30.09 0-53.67 22.84-53.67 53.38 0 30.54 23.58 53.19 53.67 53.19 29.9 0 53.67-22.65 53.67-53.19s-23.67-53.38-53.63-53.38h-.04Zm157.78 54h5.54l33.38 49.47h27l-38.4-54.83c18.62-7.13 31.12-25.74 31.12-45.75h-23.81c0 21.71-17.46 29.91-34.79 29.91V422h-24v140.29h23.9l.06-49.48Z"/>
   </g>
   <defs>
      <clipPath id="a">
         <path fill="#fff" d="M0 0h1024v1024H0z"/>
      </clipPath>
   </defs>
</svg>

<svg width="1024" height="1024" viewBox="0 0 1024 1024" fill="none" xmlns="http://www.w3.org/2000/svg">
<g clip-path="url(#clip0_2_3813)">
<path d="M512 1024C794.77 1024 1024 794.77 1024 512C1024 229.23 794.77 0 512 0C229.23 0 0 229.23 0 512C0 794.77 229.23 1024 512 1024Z" fill="#98DC9A"/>
<path d="M362.26 544.5C343.77 544.5 331.53 530.5 328.11 525.07C332.49 490.74 345.31 479.89 362.26 479.89C379 479.88 392 493 392 512.19C392 531.38 379 544.5 362.26 544.5ZM362.26 458.81C332.11 458.81 315.26 478.06 310.39 497.87C304.91 487.77 300.85 474.27 297.7 461.71H256V512.5C256 530.92 247.43 544.55 230.68 544.55C213.93 544.55 204.33 530.92 204.33 512.5L204.52 461.71H180.52V512.5C180.52 527.33 185.42 540.77 194.37 550.36C203.58 560.27 216.15 565.44 230.71 565.44C259.71 565.44 279.94 543.67 279.94 512.5V478.37C282.94 489.6 290.18 511.18 303.94 530.11L291.06 602H315.48L323.98 551.08C326.773 553.356 329.746 555.403 332.87 557.2C341.062 562.26 350.436 565.087 360.06 565.4C360.06 565.4 361.54 565.46 362.32 565.46C392.22 565.46 415.99 542.81 415.99 512.2C415.99 481.59 392.16 458.81 362.26 458.81ZM707.55 472.56V461.71H684V562.23H707.9V522.85C707.9 498.62 710.16 481.21 743.34 483.48V460.48C727.85 459.38 715.8 462.53 707.55 472.56ZM541.55 461.71L524.26 532L505.77 461.71H475.35L456.8 532L439.53 461.71H415.3L441.85 562.29H470.59L490.59 490.86L510.37 562.29H539.11L567.2 461.71H541.55ZM619.77 544.56C602.77 544.56 590 531.44 590 512.19C590 492.94 602.82 479.88 619.77 479.88C636.52 479.88 649.54 493 649.54 512.19C649.54 531.38 636.56 544.56 619.81 544.56H619.77ZM619.77 458.81C589.68 458.81 566.1 481.65 566.1 512.19C566.1 542.73 589.68 565.38 619.77 565.38C649.67 565.38 673.44 542.73 673.44 512.19C673.44 481.65 649.77 458.81 619.81 458.81H619.77ZM777.55 512.81H783.09L816.47 562.28H843.47L805.07 507.45C823.69 500.32 836.19 481.71 836.19 461.7H812.38C812.38 483.41 794.92 491.61 777.59 491.61V422H753.59V562.29H777.49L777.55 512.81Z" fill="white"/>
</g>
<defs>
<clipPath id="clip0_2_3813">
<rect width="1024" height="1024" fill="white"/>
</clipPath>
</defs>
</svg>
